!!!OTL: ES FUHR GEN ACKER EIN GROBER BAUER
!!!ARE: Europa, Mitteleuropa, Deutschland
!!!SCT: E2156
!!!YEM: Copyright 1995, estate of Helmut Schaffrath.
**kern
*ICvox
*Ivox
*M3/4
*k[b-e-]
*B-:
=1
{4dd
4.ff
8ff
=2
4b-
4ee-
4dd
=3
4.cc
8b-
4b-}
=4
{4ee-
4b-
4cc
=5
4.b-
8a-
4g
=6
4.f
8e-
4d}
=7
{4f
4b-
4b-
=8
4.b-
8cc
4dd
=9
4.cc
8b-
4b-}
=10
{4dd
4dd
4ff
=11
2b-
4b-
=12
4.ee-
8dd
4cc}
=13
{4b-
4.b-
8a-
=14
4g
4a
4b-
=15
4.b-
8a
4b-}
==
!!!AGN: geistlich, Moral - Lied, Tod
!!!ONB: ESAC (Essen Associative Code) Database: ERK3
!!!AMT: simple triple
!!!AIN: vox
!!!EED: Helmut Schaffrath
!!!EEV: 1.0
*-
